img/user-icon.svg

<svg width="12" height="12" viewBox="0 0 12 12" fill="none" xmlns="http://www.w3.org/2000/svg">
<path fill-rule="evenodd" clip-rule="evenodd" d="M1.60427 8.02096C2.15125 7.47398 2.89312 7.16669 3.66667 7.16669H8.33333C9.10688 7.16669 9.84875 7.47398 10.3957 8.02096C10.9427 8.56794 11.25 9.30981 11.25 10.0834V11.25C11.25 11.5722 10.9888 11.8334 10.6667 11.8334C10.3445 11.8334 10.0833 11.5722 10.0833 11.25V10.0834C10.0833 9.61923 9.89896 9.17411 9.57077 8.84592C9.24258 8.51773 8.79746 8.33335 8.33333 8.33335H3.66667C3.20254 8.33335 2.75742 8.51773 2.42923 8.84592C2.10104 9.17411 1.91667 9.61923 1.91667 10.0834V11.25C1.91667 11.5722 1.6555 11.8334 1.33333 11.8334C1.01117 11.8334 0.75 11.5722 0.75 11.25V10.0834C0.75 9.30981 1.05729 8.56794 1.60427 8.02096Z" fill="white"/>
<path fill-rule="evenodd" clip-rule="evenodd" d="M6 1.33335C5.0335 1.33335 4.25 2.11686 4.25 3.08335C4.25 4.04985 5.0335 4.83335 6 4.83335C6.9665 4.83335 7.75 4.04985 7.75 3.08335C7.75 2.11686 6.9665 1.33335 6 1.33335ZM3.08333 3.08335C3.08333 1.47252 4.38917 0.166687 6 0.166687C7.61083 0.166687 8.91667 1.47252 8.91667 3.08335C8.91667 4.69418 7.61083 6.00002 6 6.00002C4.38917 6.00002 3.08333 4.69418 3.08333 3.08335Z" fill="white"/>
</svg>

<svg xmlns="http://www.w3.org/2000/svg" width="12" height="12" fill="#fff"  fill-rule="evenodd"><path d="M1.604 8.021c.547-.547 1.289-.854 2.062-.854h4.667c.774 0 1.515.307 2.062.854s.854 1.289.854 2.062v1.167c0 .322-.261.583-.583.583s-.583-.261-.583-.583v-1.167a1.75 1.75 0 0 0-1.75-1.75H3.667a1.75 1.75 0 0 0-1.75 1.75v1.167c0 .322-.261.583-.583.583S.75 11.572.75 11.25v-1.167c0-.774.307-1.515.854-2.062zM6 1.333a1.75 1.75 0 1 0 0 3.5 1.75 1.75 0 1 0 0-3.5zm-2.917 1.75A2.92 2.92 0 0 1 6 .167a2.92 2.92 0 0 1 2.917 2.917C8.917 4.695 7.611 6 6 6a2.92 2.92 0 0 1-2.917-2.917z"/></svg>
